X:7
T:Engelska efter Albert Augustsson
N:From the playing of Albert Augustsson, Bohusl=E4n county.
M:2/4
R:Engelska
S:jonas_liljestrom <consolamentum@spray.se> tradtunes 2005-6-15
K:G
GB|:d2e2 dedc|B2g2 d6/c2/|BdcB AcBA|GBdc BAGB|d2e2 dedc|B2g2
d6/c2/|BdcB AcAF|A2G2 G2GB:||:d2d2 d2cd|e2dc B2AB|c2c2 c2Bc|d6/c2/
(3BcBA2|G2g2 g2fe|d2e2 d6/c2/|BdcB AcAF|[1G2G2 G2GB:|[2G2G2 G2z2||
